src/categories-icons-sprite/categories/svg-cat-underwear-men.svg

<svg width="37" height="44" viewBox="0 0 37 44" fill="none" xmlns="http://www.w3.org/2000/svg">
<path class="p-EDEAE4" d="M24.4768 0.856342V22.147C24.4768 23.0554 24.1159 23.9266 23.4736 24.569L17.1896 30.853C15.0227 33.0198 15.0227 36.533 17.1896 38.6998C19.3519 40.8621 22.856 40.8673 25.0247 38.7115L34.4441 29.3424C35.7376 28.0565 36.4649 26.308 36.4649 24.484V0.856342C36.465 0.383367 36.0817 0 35.6088 0H25.3331C24.8602 0 24.4768 0.383367 24.4768 0.856342Z" fill="#B9DFFC"/>
<path class="p-DDDAD0" d="M23.5486 27.2241V24.49C23.5238 24.5164 23.4994 24.5431 23.4736 24.5688L18.1246 29.9178C16.2304 31.812 15.0572 35.6701 16.4749 37.8231L21.0225 33.2969C22.628 31.7012 23.5486 29.4877 23.5486 27.2241Z" fill="#76B7E2"/>
<path class="p-DDDAD0" d="M34.3956 0V24.484C34.3956 26.3079 33.6683 28.0565 32.3748 29.3423L22.9554 38.7114C22.1385 39.5235 21.1319 40.0286 20.0791 40.2276C21.815 40.5551 23.6772 40.0504 25.0242 38.7114L34.4436 29.3423C35.7371 28.0565 36.4645 26.3079 36.4645 24.484V0.856342C36.4645 0.383367 36.0811 0 35.6082 0H34.3956Z" fill="#A1D1FD"/>
<path class="p-6EC030" d="M36.4648 20.8128C36.4032 20.8107 36.3418 20.8081 36.2798 20.8081C33.2058 20.8081 30.7139 22.3651 30.7139 25.439C30.7139 27.2626 31.5909 29.8162 32.9459 30.8313L34.4439 29.3422C35.7375 28.0564 36.4648 26.3078 36.4648 24.4839V20.8128Z" fill="#76B7E2"/>
<path class="p-378900" d="M34.3965 21.0373V24.4839C34.3965 26.3079 33.6692 28.0564 32.3756 29.3423L31.9033 29.8118C32.2051 30.1954 32.5558 30.5386 32.9465 30.8314L34.4445 29.3423C35.7381 28.0564 36.4654 26.3079 36.4654 24.4839V20.8128C36.4038 20.8107 36.3424 20.8081 36.2804 20.8081C35.619 20.8081 34.9849 20.8256 34.3965 21.0373Z" fill="#4D98CB"/>
<path class="p-6EC030" d="M36.4648 3.68213H24.4766V7.10733H36.4648V3.68213Z" fill="#76B7E2"/>
<path class="p-378900" d="M36.4654 3.68213H34.3965V7.10733H36.4654V3.68213Z" fill="#4D98CB"/>
<path class="p-6EC030" d="M36.4648 10.7039H24.4766V14.1291H36.4648V10.7039Z" fill="#76B7E2"/>
<path class="p-378900" d="M36.4654 10.7039H34.3965V14.1291H36.4654V10.7039Z" fill="#4D98CB"/>
<path class="p-EDEAE4" d="M9.84734 3.59658V24.8872C9.84734 25.7956 9.48644 26.6669 8.84412 27.3092L1.62511 34.5282C-0.541704 36.695 -0.541704 40.2082 1.62511 42.375C3.7874 44.5373 7.29152 44.5425 9.46023 42.3867L19.8146 32.0826C21.1082 30.7968 21.8355 29.0482 21.8355 27.2243V3.59658C21.8355 3.12368 21.4521 2.74023 20.9792 2.74023H10.7037C10.2307 2.74032 9.84734 3.12368 9.84734 3.59658Z" fill="#B9DFFC"/>
<path class="p-DDDAD0" d="M19.7672 2.74032V27.2243C19.7672 29.0482 19.0398 30.7968 17.7463 32.0826L7.3919 42.3867C6.57498 43.1988 5.56846 43.7039 4.51562 43.9029C6.25151 44.2304 8.11371 43.7257 9.46072 42.3867L19.8151 32.0826C21.1086 30.7968 21.836 29.0482 21.836 27.2243V3.59658C21.836 3.12368 21.4526 2.74023 20.9796 2.74023L19.7672 2.74032Z" fill="#A1D1FD"/>
<path class="p-6EC030" d="M21.8359 23.553C21.7743 23.551 21.7129 23.5483 21.6509 23.5483C18.5769 23.5483 16.085 25.1054 16.085 28.1793C16.085 30.0028 16.962 32.5564 18.317 33.5716L19.815 32.0825C21.1086 30.7966 21.8359 29.048 21.8359 27.2241V23.553Z" fill="#76B7E2"/>
<path class="p-378900" d="M19.7666 23.7694V27.2242C19.7666 29.0481 19.0393 30.7967 17.7458 32.0826L17.2734 32.5521C17.5752 32.9357 17.9259 33.2788 18.3166 33.5717L19.8147 32.0826C21.1082 30.7967 21.8355 29.0481 21.8355 27.2242V23.553C21.7739 23.551 21.7126 23.5483 21.6505 23.5483C20.9891 23.5484 20.355 23.5578 19.7666 23.7694Z" fill="#4D98CB"/>
<path class="p-6EC030" d="M21.8359 6.42236H9.84766V9.84757H21.8359V6.42236Z" fill="#76B7E2"/>
<path class="p-378900" d="M21.8365 6.42236H19.7676V9.84757H21.8365V6.42236Z" fill="#4D98CB"/>
<path class="p-6EC030" d="M21.8359 13.4438H9.84766V16.8691H21.8359V13.4438Z" fill="#76B7E2"/>
<path class="p-378900" d="M21.8365 13.4438H19.7676V16.8691H21.8365V13.4438Z" fill="#4D98CB"/>
</svg>

<svg width="37" height="44" fill="none" xmlns="http://www.w3.org/2000/svg"><path class="p-EDEAE4" d="M24.477.856v21.291c0 .908-.361 1.78-1.003 2.422l-6.284 6.284a5.548 5.548 0 007.835 7.858l9.42-9.369a6.85 6.85 0 002.02-4.858V.856A.856.856 0 0035.609 0H25.333a.856.856 0 00-.856.856z" fill="#B9DFFC"/><path class="p-DDDAD0" d="M23.549 27.224V24.49l-.075.079-5.35 5.349c-1.894 1.894-3.067 5.752-1.65 7.905l4.549-4.526a8.619 8.619 0 002.526-6.073z" fill="#76B7E2"/><path class="p-DDDAD0" d="M34.396 0v24.484a6.85 6.85 0 01-2.021 4.858l-9.42 9.37a5.523 5.523 0 01-2.876 1.516 5.542 5.542 0 004.945-1.517l9.42-9.369a6.85 6.85 0 002.02-4.858V.856A.856.856 0 0035.608 0h-1.212z" fill="#A1D1FD"/><path class="p-6EC030" d="M36.465 20.813c-.062-.002-.123-.005-.185-.005-3.074 0-5.566 1.557-5.566 4.631 0 1.824.877 4.377 2.232 5.392l1.498-1.489a6.85 6.85 0 002.02-4.858v-3.671z" fill="#76B7E2"/><path class="p-378900" d="M34.397 21.037v3.447a6.85 6.85 0 01-2.021 4.858l-.473.47c.302.383.653.727 1.044 1.02l1.497-1.49a6.85 6.85 0 002.021-4.858v-3.671c-.061-.002-.123-.005-.185-.005-.661 0-1.295.018-1.883.23z" fill="#4D98CB"/><path class="p-6EC030" d="M36.465 3.682H24.477v3.425h11.988V3.682z" fill="#76B7E2"/><path class="p-378900" d="M36.465 3.682h-2.069v3.425h2.07V3.682z" fill="#4D98CB"/><path class="p-6EC030" d="M36.465 10.704H24.477v3.425h11.988v-3.425z" fill="#76B7E2"/><path class="p-378900" d="M36.465 10.704h-2.069v3.425h2.07v-3.425z" fill="#4D98CB"/><path class="p-EDEAE4" d="M9.847 3.597v21.29c0 .909-.36 1.78-1.003 2.422l-7.219 7.22a5.549 5.549 0 007.835 7.858l10.355-10.304a6.85 6.85 0 002.02-4.859V3.597a.856.856 0 00-.856-.857H10.704a.856.856 0 00-.857.857z" fill="#B9DFFC"/><path class="p-DDDAD0" d="M19.767 2.74v24.484a6.85 6.85 0 01-2.02 4.859L7.391 42.387a5.522 5.522 0 01-2.876 1.516 5.542 5.542 0 004.945-1.516l10.354-10.304a6.85 6.85 0 002.021-4.859V3.597a.856.856 0 00-.856-.857h-1.213z" fill="#A1D1FD"/><path class="p-6EC030" d="M21.836 23.553c-.062-.002-.123-.005-.185-.005-3.074 0-5.566 1.557-5.566 4.631 0 1.824.877 4.377 2.232 5.393l1.498-1.49a6.85 6.85 0 002.02-4.858v-3.671z" fill="#76B7E2"/><path class="p-378900" d="M19.767 23.77v3.454a6.85 6.85 0 01-2.021 4.859l-.473.47c.302.383.653.726 1.044 1.019l1.498-1.49a6.85 6.85 0 002.02-4.858v-3.671c-.061-.002-.122-.005-.184-.005-.662 0-1.296.01-1.884.221z" fill="#4D98CB"/><path class="p-6EC030" d="M21.836 6.422H9.848v3.426h11.988V6.422z" fill="#76B7E2"/><path class="p-378900" d="M21.837 6.422h-2.07v3.426h2.07V6.422z" fill="#4D98CB"/><path class="p-6EC030" d="M21.836 13.444H9.848v3.425h11.988v-3.425z" fill="#76B7E2"/><path class="p-378900" d="M21.837 13.444h-2.07v3.425h2.07v-3.425z" fill="#4D98CB"/></svg>
